X: 1
T: Mazurka 
R: mazurka
M: 3/4
L: 1/8
K:Bmin
|: B2 Bcde|f2 Bfdf|e{b}e agfe| 1 dc BcAc :| 2 dc Bcde|
|: f2 edcB| B2 FA^Bc| c2 edcB | 1 A^B Bcde :| 2 B2 BcAc|

